!!!OTL: 182b. Liebendienst.
!!!ARE: Europa, Mitteleuropa, Deutschland, Sachsen; Schlesien; Brandenburg
!!!SCT: E0182A
!!!TXL: @@DE
!!!YEM: Copyright 1995, estate of Helmut Schaffrath.
**kern	**text
*ICvox	*
*M2/4	*
*k[f#]	*
*G:	*
!LO:TX:a:t=Sehr mäßig.	!
!LO:TX:a:t=Aus Brandenburg, Schleſten, Sachſen rc.	!
{8d	Es
=1	=1
4g	wohnt
4d	ein
=2	=2
4g	Mark-
4dd	-graf
=3	=3
8b	an
8b	dem
8b}	Rhein,
{8g	der
=4	=4
8a	hatte
8a	drei
8a	ſchö-
8f#	-ne
=5	=5
8g	Töch-
8b/	-ter-
8g}	-lein,
{8d	der
=6	=6
8g	hat-
8g	-te
4d	drei
=7	=7
8gL	ſchö-
8ee	.
8ddJ	.
8cc	-ne
=8	=8
4b/	Töch-
4a	-ter-
=9	=9
4g	-lein.
8r}	.
==	==
!!!AGN: erzaehlendes Volks - Lied, Sage, Familien - Geschichte
!!!ONB: ESAC (Essen Associative Code) Database: ERK1
!!!AMT: simple duple
!!!AIN: vox
!!!EED: Helmut Schaffrath
!!!EEV: 1.0
!!!GTL: Denkwuerdige Familiengeschichten
!!!URL-scan: https://rosdok.uni-rostock.de/mcrviewer/recordIdentifier/rosdok_ppn745146120/iview2/phys_0621.iview2?x=-128.7727644188933&y=2154.4133984930813&scale=0.5870222003877484&rotation=0&layout=singlePageLayout
!!!ENC: Anna Maria Matuszewska
!!!EEV: 2024/04/12
*-	*-
